view/frontend/web/images/mondu_big.svg

<svg xmlns="http://www.w3.org/2000/svg" width="72" height="16" viewBox="0 0 72 16" fill="none">
    <path d="M16.268 9.54868C16.268 8.05694 16.659 6.65572 17.3445 5.44438C17.1722 5.1684 16.9557 4.91671 16.6833 4.65692C15.8682 3.88934 14.8432 3.49268 13.6313 3.49268C12.0467 3.49268 10.7656 4.21463 9.92617 5.59009C9.18102 4.19255 8.03901 3.49268 6.52369 3.49268C5.07832 3.49268 4.09976 3.98134 3.30749 5.12351V3.88934H0V15.6032H3.51882V9.22119C3.51882 7.63746 4.19401 6.77642 5.47592 6.77642C6.66506 6.77642 7.27104 7.5911 7.27104 9.22119V15.6032H10.7876V9.22119C10.7876 8.29024 10.929 7.77876 11.3016 7.35928C11.627 7.00971 12.1859 6.77642 12.6998 6.77642C13.2359 6.77642 13.7947 7.03252 14.051 7.40491C14.3536 7.82439 14.4464 8.29097 14.4464 9.38531V15.6032H17.9652V14.5943C16.9005 13.193 16.268 11.4459 16.268 9.54868Z" fill="#46086D"/>
    <path d="M42.1095 4.68121C41.3172 3.91216 40.1752 3.49268 38.9404 3.49268C37.473 3.49268 36.5865 3.93497 35.7242 5.12351V3.88934H32.416V4.47073C33.4947 5.87858 34.1353 7.6382 34.1353 9.54868C34.1353 11.4599 33.4947 13.2173 32.416 14.6252V15.6032H35.9326V9.06002C35.9326 8.24387 36.004 7.96569 36.2603 7.5911C36.6086 7.07962 37.2388 6.77642 37.914 6.77642C38.5428 6.77642 39.126 7.05681 39.4065 7.49837C39.6628 7.87075 39.7548 8.33734 39.7548 9.22119V15.6032H43.2736V8.29024C43.2743 6.42685 42.996 5.51797 42.1095 4.68121Z" fill="#46086D"/>
    <path d="M54.3468 0V4.89029C53.4154 3.93505 52.3426 3.49275 50.8995 3.49275C47.5419 3.49275 45.0738 6.14874 45.0738 9.73495C45.0738 13.3668 47.5426 16 50.9451 16C52.5539 16 53.5553 15.5334 54.5582 14.3471V15.6033H57.8664V0H54.3468ZM51.5504 12.7162C49.8267 12.7162 48.5926 11.4578 48.5926 9.71066C48.5926 8.01065 49.8495 6.77649 51.5975 6.77649C53.2763 6.77649 54.5574 8.05702 54.5574 9.68785C54.5582 11.4107 53.2763 12.7162 51.5504 12.7162Z" fill="#46086D"/>
    <path d="M67.7008 3.88965V10.4328C67.7008 11.8775 66.9785 12.7165 65.7194 12.7165C65.1378 12.7165 64.6489 12.5303 64.3212 12.2028C63.9715 11.8547 63.8323 11.366 63.8323 10.4328V3.88965H60.3135V10.8994C60.3135 12.7385 60.5712 13.5775 61.3863 14.5335C62.2257 15.4873 63.3905 16.0002 64.7887 16.0002C66.349 16.0002 67.2819 15.5115 67.9107 14.3473V15.6035H71.2211V3.88965H67.7008Z" fill="#46086D"/>
    <path d="M30.1069 5.70416C28.8949 4.23744 27.2633 3.49268 25.1898 3.49268C23.4418 3.49268 21.7873 4.14545 20.7168 5.23979C19.5497 6.40404 18.8745 8.05695 18.8745 9.71059C18.8745 13.3667 21.509 15.9999 25.167 15.9999C27.007 15.9999 28.5444 15.417 29.6872 14.2528C30.852 13.0642 31.5272 11.4356 31.5272 9.73488C31.528 8.26816 31.0155 6.84633 30.1069 5.70416ZM25.2119 12.7162C23.6053 12.7162 22.3933 11.4356 22.3933 9.71059C22.3933 8.08197 23.6524 6.77642 25.2119 6.77642C26.7515 6.77642 28.0084 8.10405 28.0084 9.73488C28.0084 11.4356 26.7964 12.7162 25.2119 12.7162Z" fill="#65E9C3"/>
</svg>

<svg xmlns="http://www.w3.org/2000/svg" width="72" height="16" fill="none" viewBox="0 0 72 16"><path fill="#46086d" d="M16.268 9.549a8.3 8.3 0 0 1 1.076-4.105 4 4 0 0 0-.66-.787c-.816-.768-1.84-1.164-3.053-1.164-1.584 0-2.865.722-3.705 2.097-.745-1.397-1.887-2.097-3.402-2.097-1.446 0-2.424.488-3.217 1.63V3.89H0v11.714h3.519V9.221c0-1.584.675-2.445 1.957-2.445 1.19 0 1.795.815 1.795 2.445v6.382h3.517V9.221c0-.93.141-1.442.514-1.862.325-.35.884-.583 1.398-.583.536 0 1.095.257 1.351.629.303.42.395.886.395 1.98v6.218h3.52v-1.009a8.3 8.3 0 0 1-1.698-5.045M42.11 4.681c-.793-.769-1.935-1.188-3.17-1.188-1.467 0-2.353.442-3.216 1.63V3.89h-3.308v.582a8.32 8.32 0 0 1 1.72 5.078c0 1.91-.641 3.668-1.72 5.076v.978h3.517V9.06c0-.816.071-1.094.327-1.469.349-.511.979-.815 1.654-.815.629 0 1.212.28 1.492.722.257.373.349.84.349 1.723v6.382h3.519V8.29c0-1.863-.278-2.772-1.165-3.609M54.347 0v4.89c-.932-.955-2.004-1.397-3.447-1.397-3.358 0-5.826 2.656-5.826 6.242 0 3.632 2.469 6.265 5.871 6.265 1.609 0 2.61-.467 3.613-1.653v1.256h3.308V0zM51.55 12.716c-1.723 0-2.957-1.258-2.957-3.005 0-1.7 1.256-2.935 3.004-2.935 1.68 0 2.96 1.281 2.96 2.912.001 1.723-1.28 3.028-3.007 3.028M67.7 3.89v6.543c0 1.444-.722 2.284-1.98 2.284-.582 0-1.071-.187-1.399-.514-.35-.348-.489-.837-.489-1.77V3.89h-3.519v7.01c0 1.838.258 2.678 1.073 3.633.84.954 2.005 1.467 3.403 1.467 1.56 0 2.493-.489 3.122-1.653v1.257h3.31V3.89z"/><path fill="#65e9c3" d="M30.107 5.704c-1.212-1.467-2.844-2.211-4.917-2.211-1.748 0-3.403.652-4.473 1.747-1.167 1.164-1.842 2.817-1.842 4.47 0 3.657 2.634 6.29 6.292 6.29 1.84 0 3.377-.583 4.52-1.747a6.48 6.48 0 0 0 1.84-4.518 6.5 6.5 0 0 0-1.42-4.03m-4.895 7.012c-1.607 0-2.819-1.28-2.819-3.005 0-1.629 1.26-2.935 2.819-2.935 1.54 0 2.796 1.328 2.796 2.959 0 1.7-1.212 2.981-2.796 2.981"/></svg>
